!!!OTL: Zhai mianhua
!!!ARE: Asia, China,ÿGansu, Zhenyuan
!! I, 133
!!!SCT: C1416
!!!YEM: Copyright 1995, estate of Helmut Schaffrath.
**kern
*ICvox
*Ivox
*M2/4
*k[f#]
*G:
{8.dd
16ee
8dd
8b
=1
8dd
16dd
16ee
4dd
=2
8cc
8a
16a
16b
16a
16g
=3
16a
16b
16f#
16e
4d}
=4
{8dd
8g
8a
8b
=5
8dd
8e
4d
=6
8g
16g
16e
8g
8a
=7
2d}
==
!!!AGN: Xiaodiao
!!!ONB: ESAC (Essen Associative Code) Database: HUANG
!!!AMT: simple duple
!!!AIN: vox
!!!EED: Helmut Schaffrath
!!!EEV: 1.0
*-
